X: 4096
M: C
L: 1/16
K: G
ud2 |\
gg3 f3e d4 (efg2) | BB3 c3A G6 d2 |\
gg3 f3e d4 (efg2) | BB3 c3A G6 |:\
d2 |\
gg3 f3e d4 (efg2) | BB3 c3A G6 :|


